X:1
T:Dreistimmiger Canon
T:Ludwig van Beethoven
T:Ewig dein
%%score 1 2 3
L:1/8
Q:1/4=120
M:2/4
K:C
V:1 treble nm="Part_1"
V:2 treble nm="Part_2"
V:3 treble nm="Part_3"
V:1
 e3 f | d2 z2 | f3 g | e2 g2 | z2 fe | d2 g2 | z g2 e | f2 f2 | d4- | d2 g2 | e4 | c3 d | B2 z2 | %13
w: E- wig|dein,|e- wig|dein, dein,|e- wig|dein, dein,|e- wig,|e- wig,|e-|* wig|dein.|E- wig.|dein,|
 A3 G | G2 z2 | c2 cc | B B2 G | c4 | A2 A2 | B4- | B2 B2 | c4 |: z4 | G3 F | D2 z2 | %25
w: e- wig|dein,|dein, e- wig-|dein, e- wig-|dein,|e- wig,|e-|* wig|dein.||E- wig|dein,|
 c3 !courtesy!_B | A2 AG | G2 z2 | z4 | z F2 D | G4- | G2 G2 | C4 | e3 f | d2 z2 | f2 g2 | e2 g2 | %37
w: e- wig|dein, e- wig|dein,||e- wig,|e-|* wig|dein.|E- wig|dein,|e- wig|dein, dein,|
 z2 fe | d2 g2 | z g2 e | f2 f2 | d4- | d2 g2 | e4 | c3 d | B2 z2 | A3 G | G2 z2 | c2 cc | B B2 G | %50
w: e- wig-|dein, dein,|e- wig,|e- wig,|e-|* wig|dein.|E- wig|dein,|e- wig|dein,|dein, e- wig|dein, e- wig|
 c4 | A2 A2 | B4- | B2 B2 | c4 :| %55
w: dein,|e- wig,|e-|* wig|dein.|
V:2
 z4 | z4 | z4 | z4 | z4 | z4 | z4 | z4 | z4 | z4 | z4 | e3 f | d2 z2 | f3 g | e2 g2 | z2 fe | %16
w: |||||||||||E- wig|dein,|e­wig- *|dein, dein,|e- wig|
 d2 g2 | z g2 e | f2 f2 | d4- | d2 g2 | c4 |: c3 d | B2 z2 | A3 G | G2 z2 | c2 c2 | B B2 G | c4 | %29
w: dein, dein,|e- wig,|e- wig,|e-|* wig-|dein.|E- wig|dein.|e- wig|dein,|dein, ewig|dein, e- wig|dein,|
 A2 A2 | B4- | B2 B2 | c4 | z4 | G3 F | D2 z2 | c3 !courtesy!_B | A2 AG | G2 z2 | z4 | z F2 D | %41
w: e- wig,|e-|* wig-|dein.||E- wig|dein,|e- wig|dein, e- wig|dein,||e- wig,|
 G4- | G2 G2 | C4 | e3 f | d2 z2 | f3 g | e2 g2 | z2 fe | d2 g2 | z g2 e | f2 f2 | d4- | d2 g2 | %54
w: e-|* wig|dein.|E- wig|dein,|e- wig-|dein, dein,|e- wig|dein, dein,|e- wig,|e- wig,|e-|* wig|
 e4 :| %55
w: dein.|
V:3
 z4 | z4 | z4 | z4 | z4 | z4 | z4 | z4 | z4 | z4 | z4 | z4 | z4 | z4 | z4 | z4 | z4 | z4 | z4 | %19
w: |||||||||||||||||||
 z4 | z4 | z4 |: e3 f | d2 z2 | f3 g | e2 g2 | z2 fe | d2 g2 | z g2 e | f2 f2 | d4- | d2 g2 | e4 | %33
w: |||E- wig|dein,|e- wig|dein, dein,|e- wig|dein, dein,|e- wig,|e- wig,|e-|* wig|dein.|
 c3 d | B2 z2 | A3 G | G2 z2 | c2 cc | B B2 G | c4 | A2 A2 | B4- | B2 B2 | c4 | z4 | G3 F | D2 z2 | %47
w: E- wig|dein,|e- wig|dein,|dein, e- wig|dein, e- wig|dein,|e- wig,|e-|* wig|dein.||E- wig|dein,|
 c3 !courtesy!_B | A2 AG | G2 z2 | z4 | z F2 D | G4- | G2 G2 | C4 :| %55
w: e- wig|dein, e- wig|dein,||e- wig,|e-|* wig|dein.|

